X:1
T:Title
%%score { 1 | 2 }
L:1/8
M:4/4
K:C
V:1 treble nm="Grand Piano"
V:2 bass 
V:1
 z4 z2[Q:1/4=100] [CE][DF] | [EG]2 [EG]2 [FA]2 [FG]2 | [EG]2 [Ec]4 cB | A2 G2 E2 C2 | [B,D]6 CD | %5
 E2 [EG]2 [FA]2 [FG]2 | [EG]2 [Ec]4 [Fd][Ec] | [DB]2 [DB]2 [^Fc]2 [FA]2 |[M:3/4] G4 z2 | %9
[M:1/4] [Gc][Gd] |[M:4/4] [Ge]2 [CGc]2 [CAc]2 [CFA]2 | [CEG]2 [G,CE]4 [CE][CDF] | %12
 [CEG]2 [EGc]2 [DGB]2 [CGc]2 | d6 ed | [Ec]2 [GB]2 A2 c2 | G2 E4 CD | E2 G2 [DF]2 [B,D]2 | %17
[M:3/4] C4 z2 |] %18
V:2
 z4 z2 [C,G,][C,G,] | [C,C]2 [C,C]2 [F,C]2 [G,B,]2 | [C,C]2 [C,G,]4 [E,G,C][E,G,C] | %3
 [F,C]2 [E,G,C]2 [C,G,C]2 [A,,F,]2 | [G,,G,]6 [C,E,][C,F,C] | [C,G,C]2 [C,C]2 [F,C]2 [G,B,]2 | %6
 [C,C]2 [C,G,]4 [C,G,][C,G,] | [D,G,]2 [D,G,]2 [D,A,]2 [D,C]2 |[M:3/4] [G,B,]4 z2 | %9
[M:1/4] [E,C][G,B,] |[M:4/4] [C,C]2 E,2 F,2 F,2 | C,2 C,4 C,C, | C,2 C,2 D,2 E,2 | %13
 [G,B,G]6 [G,B,G][G,B,F] | [C,C]2 [E,C]2[K:treble] [F,CF]2 [A,CF]2 | %15
 [CE]2[K:bass] [C,C]4 [E,G,][F,A,C] | [G,C]2 [G,E]2 [G,,G,]2 [G,,F,]2 |[M:3/4] [C,E,]4 z2 |] %18

